X: 442
%
U:~=!turn!
T: Mr. Abel Bank's
C:
O:Scotland
B:Keith Norman MacDonald : "The Skye collection of the best reels & strathspeys extant" : 1887
Z:Ralph Palmer
R:Strathspey
M:C
L:1/8
K:C
"Slow with feeling"E<E cA (AGE)D | E>E c>A G>c E>c | ((3ABc) BA ((3AGE) D2 | C<C cd eE Gc :|
e<g g>a ((3age) d2 | e<Lg e<La e<Lg e<L!4!c' | e<g g>a (ag/e/) de | cd ed cEGc |
e<g g>a ((3age) d2 | e>g g>a ((3.g.d.d) ((3.e.B.B) | ((3.c.B.A) ((3.G.F.E) (.c.E.E)D | C<C cd eEGc |]


